X:393
T:Willow Kishie, The
C:Willie Hunter Jr
D:Ossian, Ossian
Z:Nigel Gatherer
M:4/4
L:1/8
K:D
A | D3  F ADFA | dcdB AFDF | EDEF   GFGA     | BdcB   AFGE  |
    D3  F ADFA | dcdB AFDF | GFGA   (3Bcd AG | FEDC   D3   :|
A | d2 fd Adfd | Adfd AFDB | =c2 ec GE    C2 | A,=CEG cG E2 |
    d2 fd Adfd | Adfd AFDB | GFGA   (3Bcd AG | FEDC   D3 A  |
    d2 fd Adfd | Adfd AFDB | =c2 ec GE    C2 | A,=CEG cG E2 |
    D3  F ADFA | dcdB AFDF | GFGA   (3Bcd AG | FEDC   D3   |]
<end>
<start>
